images_sukapura_svg/cmd/lc_printpreview.svg

<svg viewBox="0 0 24 24" xmlns="http://www.w3.org/2000/svg" xmlns:xlink="http://www.w3.org/1999/xlink"><linearGradient id="a" gradientUnits="userSpaceOnUse" x1="15" x2="17.0000008" y1="8" y2="5.9999992"><stop offset="0" stop-color="#fff"/><stop offset=".77967989" stop-color="#f1f1f1"/><stop offset="1" stop-color="#d5d5d5"/></linearGradient><radialGradient id="b" cx="16.299999" cy="7.955555" gradientTransform="matrix(1.4285714 -.00000006 .00000006 1.4285714 -7.285714 -4.365078)" gradientUnits="userSpaceOnUse" r="7"><stop offset="0" stop-color="#d7d7d7"/><stop offset=".29999998" stop-color="#f7f7f7"/><stop offset="1" stop-color="#fff"/></radialGradient><path d="m5 4v17h10.5c-3.025721 0-5.5-2.474279-5.5-5.5s2.474279-5.5 5.5-5.5c1.326717 0 2.547431.476297 3.5 1.265625v-3.5371094l-4-3.7285156zm13.128906 16.238281c-.810173.44983-1.69034.760419-2.626953.761719h3.388672z" fill="url(#b)"/><path d="m5 3c-.554 0-1 .446-1 1v17c0 .554.446 1 1 1h14.890625l-1-1h-3.388672-.001953-10.5v-17h9v4c0 .554.446 1 1 1h4v2.265625c.380836.315573.715237.682422 1 1.087891v-4.103516-.2089844c0-.4506799.098038-.4254121-.605469-1.0664062l-3.30664-3.2382813c-.709525-.7368575-.710169-.7363281-1.09375-.7363281h-.332032-.662109z" fill="#98989d"/><path d="m15.5 11c-2.485281 0-4.5 2.014719-4.5 4.5s2.014719 4.5 4.5 4.5c.693353-.000949 1.36652-.173359 1.980469-.476562.041512.069138.075043.141449.134765.201171l3.535157 3.53711c.391737.391737 1.022325.391737 1.414062 0 .103037-.103037.175775-.224154.224609-.351563.232642-.164361.346669-.504202.070313-.769531l-.294922-.294922-3.535156-3.535156-.007813-.007813c.633813-.796664.978765-1.7847.978516-2.802734 0-2.485281-2.014719-4.5-4.5-4.5zm-.009766 1.990234a2.5125763 2.5125763 0 0 1 2.511719 2.513672 2.5125763 2.5125763 0 0 1 -2.511719 2.511719 2.5125763 2.5125763 0 0 1 -2.513672-2.511719 2.5125763 2.5125763 0 0 1 2.513672-2.513672z" fill="#0a84ff"/><circle cx="15.5" cy="15.5" fill="#fff" r="2.507813" stroke-width=".716518"/><path d="m15 4 4 4h-4z" fill="url(#a)"/></svg>

<?xml version="1.0" encoding="UTF-8" standalone="no"?>
<svg
   xmlns:dc="http://purl.org/dc/elements/1.1/"
   xmlns:cc="http://creativecommons.org/ns#"
   xmlns:rdf="http://www.w3.org/1999/02/22-rdf-syntax-ns#"
   xmlns:svg="http://www.w3.org/2000/svg"
   xmlns="http://www.w3.org/2000/svg"
   xmlns:xlink="http://www.w3.org/1999/xlink"
   xmlns:sodipodi="http://sodipodi.sourceforge.net/DTD/sodipodi-0.dtd"
   xmlns:inkscape="http://www.inkscape.org/namespaces/inkscape"
   viewBox="0 0 24 24"
   version="1.1"
   id="svg12"
   sodipodi:docname="lc_printpreview.svg"
   inkscape:version="0.92.3 (unknown)"
   inkscape:export-filename="/home/rizmut/Dokumen/Rizmut/Github/libreoffice-style-colibrex/images_colibrex/cmd/lc_printpreview.png"
   inkscape:export-xdpi="96"
   inkscape:export-ydpi="96">
  <metadata
     id="metadata18">
    <rdf:RDF>
      <cc:Work
         rdf:about="">
        <dc:format>image/svg+xml</dc:format>
        <dc:type
           rdf:resource="http://purl.org/dc/dcmitype/StillImage" />
      </cc:Work>
    </rdf:RDF>
  </metadata>
  <defs
     id="defs16">
    <linearGradient
       inkscape:collect="always"
       xlink:href="#linearGradient882"
       id="linearGradient884"
       x1="18"
       y1="11"
       x2="19.428572"
       y2="9.5714283"
       gradientUnits="userSpaceOnUse"
       gradientTransform="matrix(1.4,0,0,1.4,-10.2,-7.4)" />
    <linearGradient
       inkscape:collect="always"
       id="linearGradient882">
      <stop
         style="stop-color:#ffffff;stop-opacity:1;"
         offset="0"
         id="stop878" />
      <stop
         id="stop886"
         offset="0.77967989"
         style="stop-color:#f1f1f1;stop-opacity:1" />
      <stop
         style="stop-color:#d5d5d5;stop-opacity:1"
         offset="1"
         id="stop880" />
    </linearGradient>
    <radialGradient
       inkscape:collect="always"
       xlink:href="#linearGradient870"
       id="radialGradient857"
       cx="16.299999"
       cy="7.9555554"
       fx="16.299999"
       fy="7.9555554"
       r="7"
       gradientTransform="matrix(1.4285714,-6.3025743e-8,6.3025743e-8,1.4285714,-7.285714,-4.365078)"
       gradientUnits="userSpaceOnUse" />
    <linearGradient
       inkscape:collect="always"
       id="linearGradient870">
      <stop
         style="stop-color:#d7d7d7;stop-opacity:1"
         offset="0"
         id="stop866" />
      <stop
         id="stop874"
         offset="0.29999998"
         style="stop-color:#f7f7f7;stop-opacity:1" />
      <stop
         style="stop-color:#ffffff;stop-opacity:1"
         offset="1"
         id="stop868" />
    </linearGradient>
  </defs>
  <sodipodi:namedview
     pagecolor="#ffffff"
     bordercolor="#666666"
     borderopacity="1"
     objecttolerance="10"
     gridtolerance="10"
     guidetolerance="10"
     inkscape:pageopacity="0"
     inkscape:pageshadow="2"
     inkscape:window-width="1366"
     inkscape:window-height="706"
     id="namedview14"
     showgrid="true"
     inkscape:zoom="11.313709"
     inkscape:cx="-15.124647"
     inkscape:cy="5.6249171"
     inkscape:window-x="0"
     inkscape:window-y="0"
     inkscape:window-maximized="1"
     inkscape:current-layer="svg12">
    <inkscape:grid
       type="xygrid"
       id="grid828" />
  </sodipodi:namedview>
  <path
     style="fill:url(#radialGradient857);fill-opacity:1"
     d="M 5 4 L 5 21 L 15.5 21 C 12.474279 21 10 18.525721 10 15.5 C 10 12.474279 12.474279 10 15.5 10 C 16.826717 10 18.047431 10.476297 19 11.265625 L 19 7.7285156 L 15 4 L 5 4 z M 18.128906 20.238281 C 17.318733 20.688111 16.438566 20.9987 15.501953 21 L 18.890625 21 L 18.128906 20.238281 z "
     id="path2-3" />
  <path
     d="m5 3c-.554 0-1 .446-1 1v17c0 .554.446 1 1 1h14.890625l-1-1h-3.388672-.001953-10.5v-17h9v4c0 .554.446 1 1 1h4v2.265625c.380836.315573.715237.682422 1 1.087891v-4.103516-.2089844c0-.4506799.098038-.4254121-.605469-1.0664062l-3.30664-3.2382813c-.709525-.7368575-.710169-.7363281-1.09375-.7363281h-.332032-.662109z"
     id="path4"
     fill="#808080"
     style="fill:#98989d;fill-opacity:1" />
  <path
     style="fill:#0a84ff;fill-opacity:1;stroke:none;stroke-opacity:1"
     d="M 15.5 11 C 13.014719 11 11 13.014719 11 15.5 C 11 17.985281 13.014719 20 15.5 20 C 16.193353 19.999051 16.86652 19.826641 17.480469 19.523438 C 17.521981 19.592576 17.555512 19.664887 17.615234 19.724609 L 21.150391 23.261719 C 21.542128 23.653456 22.172716 23.653456 22.564453 23.261719 C 22.66749 23.158682 22.740228 23.037565 22.789062 22.910156 C 23.021704 22.745795 23.135731 22.405954 22.859375 22.140625 L 22.564453 21.845703 L 19.029297 18.310547 L 19.021484 18.302734 C 19.655297 17.50607 20.000249 16.518034 20 15.5 C 20 13.014719 17.985281 11 15.5 11 z M 15.490234 12.990234 A 2.5125763 2.5125763 0 0 1 18.001953 15.503906 A 2.5125763 2.5125763 0 0 1 15.490234 18.015625 A 2.5125763 2.5125763 0 0 1 12.976562 15.503906 A 2.5125763 2.5125763 0 0 1 15.490234 12.990234 z "
     id="path8" />
  <circle
     cx="15.5"
     cy="15.5"
     r="2.5078125"
     id="circle10"
     style="fill:#ffffff;stroke-width:0.71651787" />
  <path
     inkscape:connector-curvature="0"
     id="path876"
     d="m 15,4 4,4 h -4 z"
     style="fill:url(#linearGradient884);fill-opacity:1;stroke:none;stroke-width:1.39999998px;stroke-linecap:butt;stroke-linejoin:miter;stroke-opacity:1"
     sodipodi:nodetypes="cccc" />
</svg>
